src/images/icons/icon-people-2.svg

<?xml version="1.0" encoding="UTF-8"?>
<svg width="40px" height="40px" viewBox="0 0 40 40" version="1.1" xmlns="http://www.w3.org/2000/svg" xmlns:xlink="http://www.w3.org/1999/xlink">
    <!-- Generator: Sketch 50.2 (55047) - http://www.bohemiancoding.com/sketch -->
    <title>Artboard 2</title>
    <desc>Created with Sketch.</desc>
    <defs></defs>
    <g id="Artboard-2" stroke="none" stroke-width="1" fill="none" fill-rule="evenodd">
        <path d="M32,21 C29.790861,21 28,18.9852814 28,16.5 C28,14.0147186 29.790861,12 32,12 C34.209139,12 36,14.0147186 36,16.5 C36,18.9852814 34.209139,21 32,21 Z M24,26 C24,25 26,22 28,22 C30,22 29,23 32,23 C35,23 34,22 36,22 C38,22 40,25 40,26 C40,27 40,28 39,28 L25,28 C24,28 24,27 24,26 Z" id="icon-user-16" fill="#FFD799"></path>
        <path d="M8,21 C5.790861,21 4,18.9852814 4,16.5 C4,14.0147186 5.790861,12 8,12 C10.209139,12 12,14.0147186 12,16.5 C12,18.9852814 10.209139,21 8,21 Z M0,26 C-9.28070421e-09,25 2,22 4,22 C6,22 5,23 8,23 C11,23 10,22 12,22 C14,22 16,25 16,26 C16,27 16,28 15,28 L1,28 C0,28 9.28070437e-09,27 0,26 Z" id="icon-user-16-copy" fill="#FFD799"></path>
        <path d="M20,22 C16.6862915,22 14,18.8659932 14,15 C14,11.1340068 16.6862915,8 20,8 C23.3137085,8 26,11.1340068 26,15 C26,18.8659932 23.3137085,22 20,22 Z M8,29 C7.99999999,27.5 11,23 14,23 C17,23 15.5,24.5 20,24.5 C24.5,24.5 23,23 26,23 C29,23 32,27.5 32,29 C32,30.5 32,32 30.5,32 L9.5,32 C8,32 8.00000001,30.5 8,29 Z" id="icon-user-16" fill="#FF9300"></path>
    </g>
</svg>

<svg xmlns="http://www.w3.org/2000/svg" width="40" height="40"><g fill="none" fill-rule="evenodd"><path fill="#FFD799" d="M32 21c-2.21 0-4-2.015-4-4.5s1.79-4.5 4-4.5 4 2.015 4 4.5-1.79 4.5-4 4.5Zm-8 5c0-1 2-4 4-4s1 1 4 1 2-1 4-1 4 3 4 4 0 2-1 2H25c-1 0-1-1-1-2ZM8 21c-2.21 0-4-2.015-4-4.5S5.79 12 8 12s4 2.015 4 4.5S10.21 21 8 21Zm-8 5c0-1 2-4 4-4s1 1 4 1 2-1 4-1 4 3 4 4 0 2-1 2H1c-1 0-1-1-1-2Z"/><path fill="#FF9300" d="M20 22c-3.314 0-6-3.134-6-7s2.686-7 6-7 6 3.134 6 7-2.686 7-6 7ZM8 29c0-1.5 3-6 6-6s1.5 1.5 6 1.5 3-1.5 6-1.5 6 4.5 6 6 0 3-1.5 3h-21C8 32 8 30.5 8 29Z"/></g></svg>
